X: 26763
T: Mill Stream, The
R: reel
M: 4/4
K: Dmajor
A2FD EDEF|ADFD G4|A2FD EDEF|AFGE D4:|
|:A3c cAAG|Addc dfed|A3c BGGB|AFGE D4:|

